X: 1
M:C|
L:1/8
K:D
v(D>.D) u((3FED) v(F>.A)u(d>.A) | "_SEGUE."((3Bcd) A>F E>DB,>A, |\
 D>D ((3FED) F>Ad>A | ((3Bcd) A>F E>F Dz |
 ((3Bcd) A>F E>F Dz |]
v(B>.F) u{G}((3F^EF) v(d>.B) u{c}((3BAB) |\
 "_SEGUE"f>B {c}((3BAB) b>f {g}((3fef) | \
g>ef>d "4"e>cd>A | ((3Bcd) A>c B>AF>A |
g>ef>d "4"e>cd>A | ((3Bcd) B>F E>DB,>A, "_D.C."|]


